logos/cifar.svg

<svg width="197" height="71" viewBox="0 0 197 71" fill="none"
    xmlns="http://www.w3.org/2000/svg">
    <g clip-path="url(#clip0_1749_827)">
        <mask id="mask0_1749_827" style="mask-type:luminance" maskUnits="userSpaceOnUse" x="0" y="0" width="197" height="71">
            <path d="M197 0H0V71H197V0Z" fill="white"/>
        </mask>
        <g mask="url(#mask0_1749_827)">
            <path d="M197 49.8716H196.413C193.071 49.8716 189.728 49.8641 186.385 49.8815C186.216 49.8989 186.045 49.8614 185.899 49.7745C185.753 49.6876 185.639 49.5561 185.573 49.3992C182.608 43.9991 179.638 38.6027 176.661 33.21C176.593 33.0534 176.477 32.9226 176.33 32.8367C176.182 32.7509 176.011 32.7145 175.841 32.7329C173.216 32.7503 170.591 32.7554 167.966 32.7305C167.446 32.7258 167.283 32.8516 167.285 33.3956C167.307 38.6349 167.299 43.8739 167.299 49.1132V49.8412C167.093 49.8526 166.925 49.87 166.755 49.8704C163.64 49.8704 160.525 49.8621 157.41 49.8815C156.953 49.8847 156.821 49.7695 156.821 49.3003C156.834 33.4083 156.837 17.516 156.832 1.6232V1.10769C157.057 1.09384 157.242 1.07248 157.426 1.07208C164.634 1.07208 171.846 1.05546 179.057 1.07525C185.96 1.09424 192.114 5.32631 194.298 11.5595C196.809 18.7271 194.46 27.0437 186.9 31.1923C186.794 31.2504 186.694 31.3189 186.54 31.4142C190.011 37.5374 193.474 43.6472 197 49.8689M167.297 16.8578C167.297 18.76 167.294 20.6622 167.297 22.5644C167.297 23.4391 167.174 23.392 168.101 23.3924C170.934 23.3924 173.765 23.3983 176.6 23.3896C177.403 23.3873 178.208 23.377 179.008 23.3153C179.89 23.243 180.747 22.9864 181.524 22.5621C182.3 22.1378 182.979 21.5553 183.515 20.8523C184.052 20.1493 184.435 19.3414 184.639 18.4812C184.843 17.621 184.864 16.7276 184.7 15.8588C184.058 12.5355 181.565 10.4553 178.116 10.4276C174.688 10.3999 171.26 10.4276 167.833 10.4121C167.375 10.4102 167.284 10.5815 167.287 10.9941C167.305 12.9485 167.295 14.9034 167.295 16.8578" fill="white"/>
            <path d="M154.042 49.8712H153.448C150.123 49.8712 146.799 49.861 143.474 49.8831C143.297 49.9066 143.117 49.8611 142.973 49.756C142.828 49.6509 142.73 49.4942 142.698 49.3186C141.448 45.8394 140.17 42.3697 138.918 38.8909C138.887 38.7245 138.794 38.5761 138.657 38.4767C138.52 38.3772 138.349 38.3341 138.181 38.3564C132.232 38.3746 126.283 38.3755 120.333 38.3592C120.173 38.3368 120.01 38.3762 119.877 38.4694C119.745 38.5625 119.653 38.7025 119.62 38.8608C118.361 42.3578 117.081 45.8469 115.825 49.3451C115.794 49.5125 115.7 49.6619 115.562 49.762C115.425 49.8622 115.254 49.9056 115.085 49.8831C111.76 49.8621 108.435 49.8716 105.11 49.8716H104.496C104.83 49.0072 105.13 48.2171 105.439 47.431C108.879 38.6889 112.319 29.9471 115.759 21.2058C118.335 14.6581 120.908 8.10933 123.478 1.55952C123.517 1.4022 123.612 1.26461 123.746 1.17286C123.88 1.08111 124.042 1.04159 124.203 1.06181C127.563 1.07843 130.922 1.07843 134.282 1.06181C134.459 1.03836 134.637 1.08118 134.784 1.18197C134.931 1.28276 135.035 1.43436 135.076 1.60739C139.364 12.5329 143.66 23.4551 147.963 34.374C149.93 39.3716 151.894 44.3697 153.857 49.3684C153.908 49.4974 153.953 49.6275 154.042 49.8712ZM129.334 13.3747L129.201 13.379L123.325 29.2541H135.211L129.334 13.3747Z" fill="white"/>
            <path d="M47.1517 41.1594C45.5968 43.1152 43.7526 44.8228 41.6826 46.2235C38.1824 48.6963 34.1102 50.2398 29.8488 50.7088C21.617 51.5791 14.2712 49.4594 8.10969 43.8378C3.62135 39.815 0.790088 34.2695 0.165825 28.2784C-0.396495 23.2092 0.595389 18.0889 3.01023 13.5951C5.42506 9.10132 9.14902 5.44582 13.6893 3.11233C18.2053 0.739146 23.2996 -0.314098 28.3876 0.0734877C35.7092 0.593347 41.7642 3.67571 46.4756 9.32533C46.5758 9.44401 46.6641 9.57537 46.7235 9.65449L40.1062 16.2437C38.8565 14.5764 37.3137 13.1499 35.5532 12.0338C33.0861 10.4099 30.2138 9.5069 27.2604 9.42661C20.8739 9.27983 15.8345 11.783 12.6025 17.3392C7.93898 25.3524 10.853 36.7821 20.6454 40.4267C26.6151 42.649 32.2479 41.5934 37.3708 37.9045C38.662 36.9748 39.7659 35.7859 40.9997 34.677L47.1517 41.1594Z" fill="white"/>
            <path d="M84.3422 49.8313H73.9771V1.07215H74.6068C86.1384 1.07215 97.67 1.06885 109.202 1.06226C109.709 1.06226 109.893 1.16116 109.886 1.71584C109.855 4.38754 109.873 7.05924 109.872 9.73094C109.872 10.4193 109.872 10.4209 109.196 10.4209H85.0999C84.343 10.4209 84.3422 10.4209 84.3422 11.1983C84.3422 15.0399 84.3513 18.8815 84.3311 22.7231C84.3287 23.2406 84.4531 23.4067 84.9985 23.4047C91.1774 23.3854 97.3524 23.3925 103.529 23.3925C104.254 23.3925 104.254 23.3925 104.254 24.1382C104.254 26.8099 104.242 29.4816 104.265 32.1529C104.27 32.6483 104.143 32.8026 103.629 32.8014C97.4346 32.784 91.2401 32.7803 85.0456 32.7903C84.3438 32.7903 84.3426 32.7903 84.3426 33.5096C84.3426 38.7132 84.3426 43.9169 84.3426 49.1208L84.3422 49.8313Z" fill="white"/>
            <path d="M64.3693 25.447V49.1817C64.3693 49.8705 64.3693 49.8713 63.6916 49.8713C60.6639 49.8713 57.6359 49.8614 54.6086 49.8816C54.1246 49.8848 53.9452 49.7835 53.9456 49.2561C53.959 33.3979 53.9599 17.5399 53.9483 1.68224C53.9483 1.21223 54.0707 1.05753 54.5623 1.0611C57.6422 1.08325 60.7224 1.08325 63.8029 1.0611C64.2822 1.05793 64.3792 1.215 64.3784 1.66008C64.3657 9.5888 64.3627 17.5178 64.3693 25.447Z" fill="white"/>
            <path d="M196.859 60.6633H156.858V71H196.859V60.6633Z" fill="white"/>
        </g>
    </g>
    <defs>
        <clipPath id="clip0_1749_827">
            <rect width="197" height="71" fill="white"/>
        </clipPath>
    </defs>
</svg>

<svg xmlns="http://www.w3.org/2000/svg" width="197" height="71" fill="none" viewBox="0 0 197 71">
    <g clip-path="url(#a)">
        <mask id="b" width="197" height="71" x="0" y="0" maskUnits="userSpaceOnUse" style="mask-type:luminance">
            <path fill="currentColor" d="M197 0H0v71h197z"/>
        </mask>
        <g fill="currentColor" mask="url(#b)">
            <path d="M197 49.872h-.587c-3.342 0-6.685-.008-10.028.01a.79.79 0 0 1-.812-.483q-4.447-8.1-8.912-16.189a.8.8 0 0 0-.82-.477c-2.625.017-5.25.022-7.875-.002-.52-.005-.683.12-.681.665.022 5.239.014 10.478.014 15.717v.728c-.206.012-.374.029-.544.03-3.115 0-6.23-.009-9.345.01-.457.004-.589-.111-.589-.58q.019-23.839.011-47.678v-.515c.225-.014.41-.036.594-.036 7.208 0 14.42-.017 21.631.003 6.903.02 13.057 4.251 15.241 10.484 2.511 7.168.162 15.485-7.398 19.633-.106.058-.206.127-.36.222L197 49.87m-29.703-33.011c0 1.902-.003 3.804 0 5.706 0 .875-.123.828.804.828 2.833 0 5.664.006 8.499-.002a33 33 0 0 0 2.408-.075 6.33 6.33 0 0 0 4.507-2.463 6.3 6.3 0 0 0 1.185-4.993c-.642-3.323-3.135-5.404-6.584-5.431-3.428-.028-6.856 0-10.283-.016-.458-.002-.549.17-.546.582.018 1.954.008 3.91.008 5.864M154.042 49.871h-.594c-3.325 0-6.649-.01-9.974.012a.696.696 0 0 1-.776-.564c-1.25-3.48-2.528-6.95-3.78-10.428a.66.66 0 0 0-.737-.535q-8.923.029-17.848.003a.64.64 0 0 0-.713.502c-1.259 3.497-2.539 6.986-3.795 10.484a.664.664 0 0 1-.74.538c-3.325-.02-6.65-.011-9.975-.011h-.614c.334-.865.634-1.655.943-2.441l10.32-26.225a23367 23367 0 0 0 7.719-19.646.66.66 0 0 1 .725-.498q5.04.024 10.079 0a.72.72 0 0 1 .794.545q6.432 16.389 12.887 32.767 2.95 7.497 5.894 14.994c.051.13.096.26.185.503m-24.708-36.496-.133.004-5.876 15.875h11.886zM47.152 41.16a24.6 24.6 0 0 1-5.47 5.064 25.3 25.3 0 0 1-11.833 4.485c-8.232.87-15.578-1.25-21.74-6.871a24.27 24.27 0 0 1-7.943-15.56c-.562-5.069.43-10.19 2.844-14.683A25.2 25.2 0 0 1 13.69 3.112 27.16 27.16 0 0 1 28.387.073c7.321.52 13.376 3.603 18.088 9.252.1.119.188.25.248.33l-6.618 6.589a17.2 17.2 0 0 0-4.553-4.21 15.87 15.87 0 0 0-8.293-2.607c-6.386-.147-11.426 2.356-14.658 7.912-4.663 8.013-1.749 19.443 8.043 23.088 5.97 2.222 11.603 1.166 16.726-2.523 1.291-.93 2.395-2.118 3.629-3.227zM84.342 49.831H73.977V1.072h.63q17.297 0 34.595-.01c.507 0 .691.1.684.654-.031 2.672-.013 5.343-.014 8.015 0 .688 0 .69-.676.69H85.1c-.757 0-.758 0-.758.777 0 3.842.01 7.683-.01 11.525-.003.518.121.684.667.682 6.178-.02 12.353-.013 18.53-.013.725 0 .725 0 .725.746 0 2.672-.012 5.344.011 8.015.005.495-.122.65-.636.648q-9.291-.025-18.583-.01c-.702 0-.703 0-.703.719V49.83M64.37 25.447v23.735c0 .688 0 .69-.678.69-3.028 0-6.056-.01-9.083.01-.484.003-.664-.099-.663-.626q.02-23.787.002-47.574c0-.47.123-.624.614-.62q4.62.032 9.24 0c.48-.004.577.153.576.598q-.018 11.894-.009 23.787M196.859 60.663h-40.001V71h40.001z"/>
        </g>
    </g>
    <defs>
        <clipPath id="a">
            <path fill="currentColor" d="M0 0h197v71H0z"/>
        </clipPath>
    </defs>
</svg>
